X:137
T:Sonata K.96 in D Major
C:Scarlatti, D.
M:6/8
L:1/8
Q:3/8=132
K:D
|:A|d2A d2f|A2d f2a|g2e g2b|e3 e2A|
d2A d2f|A2d f2a|g2f edc|d3 d:|

